X:47
T:Dancing on the Ceiling 
C:Rogers & Hart (Simple Simon - 1931
N:TablEdited by Dion Morris
L:1/8
Q:1/4=132
M:2/2
K:F
|: "F"z2C2 D2E2 | "A+"F2G2 (3AAA(3AAA | "Bb6"(3GGG(3GGF "G7"E2D2 | "C"c2c2 "Em"(3=BBB(3BBB | 
"Gm7"(3BBB(3BBB "C7"(3BBBc2 | "F"(3AAA(3AAA (3AAA(3AAA | "Bb6"(3GGG(3GGG "C7"(3GGGA2 | 
"F6"(3FFF(3FFF (3FFF(3FFF :|: z2"C7"G2 G2G2 | GGGA F2G2 | "F6"A2z2 c2c2 | (3ccc(3ccc (3ccc(3ccc :| "F"z2C2 D2E2 | 
"A+"F2G2 (3AAA(3AAA | "Bb6"(3GGG(3GGFz/4 "G7"E2D2 | "C""Am7"c2c2 "Em"(3=BBB(3BBB | 
"Gm7"(3BBB(3BBB (3ddd(3ddd | z4 "C7"(3EEE(3EEE | "F"(3FFF(3FFF (3FFF(3FFF | (3FFF(3FFF (3FFFz/4z3/4 | 


